P2
# Created by GIMP version 2.10.30 PNM plug-in
160 120
255
34
34
35
35
37
36
36
36
38
38
40
41
43
45
43
42
42
44
45
47
48
49
50
51
50
51
52
52
53
54
53
55
55
54
55
58
66
72
71
65
65
68
74
74
70
66
66
70
74
80
81
77
75
78
78
74
75
76
77
80
83
77
79
79
82
83
85
82
83
85
85
86
91
89
88
89
90
90
90
90
87
92
87
92
89
92
89
87
91
86
88
91
88
83
83
81
84
83
83
82
83
79
77
78
80
78
78
76
72
73
74
76
76
71
67
66
68
66
67
66
60
55
54
53
55
51
51
51
50
51
50
50
48
47
48
48
47
47
45
44
44
43
43
43
41
41
40
40
52
41
41
41
40
41
40
39
40
38
38
37
34
33
34
34
35
36
36
36
37
37
42
39
40
42
45
49
47
47
45
47
47
49
50
51
52
51
50
50
50
52
55
55
55
55
56
56
59
66
72
71
65
65
68
74
74
71
69
69
72
76
82
83
79
78
80
82
78
78
79
80
86
84
80
81
82
86
86
88
85
85
89
88
92
93
91
92
91
91
93
90
91
94
90
94
91
94
92
90
91
88
92
92
89
86
84
83
85
85
84
84
84
80
80
81
81
79
81
75
74
74
75
76
76
71
67
67
67
67
70
65
58
55
53
56
53
53
53
51
52
53
53
49
48
48
48
48
47
46
45
44
44
44
42
41
42
41
40
41
41
42
42
41
41
40
40
40
40
38
38
38
34
34
34
34
34
35
36
37
37
37
38
38
39
40
41
44
47
49
48
47
47
48
50
50
50
51
50
50
49
51
54
57
56
56
55
56
57
60
68
74
71
66
67
70
75
74
71
70
71
77
78
83
85
83
79
83
85
83
80
81
81
85
88
83
84
86
88
89
90
88
89
91
91
96
95
94
93
94
96
92
94
103
92
95
93
96
95
92
93
90
95
95
90
89
85
86
87
87
85
87
84
82
83
84
82
84
81
77
77
76
76
77
75
72
70
70
69
69
69
62
57
55
56
55
55
55
54
55
56
52
50
49
49
50
49
48
47
47
45
45
44
42
42
41
41
41
41
42
41
42
42
42
44
40
40
41
39
39
38
38
40
40
41
40
41
41
41
40
40
40
40
40
40
40
41
43
44
45
49
52
50
49
51
51
50
50
50
60
50
51
54
57
58
58
57
57
58
59
61
70
75
72
69
71
72
76
75
72
71
75
78
81
84
86
81
81
85
87
87
83
84
84
88
91
94
89
89
91
95
91
90
95
93
97
98
97
95
97
98
96
97
97
95
97
96
98
96
95
95
92
97
97
91
91
87
89
89
87
88
89
84
85
85
84
84
86
80
79
79
78
77
78
75
73
71
71
69
71
68
61
57
57
60
55
57
56
56
57
54
52
50
50
50
51
48
48
47
48
46
44
44
42
42
42
43
43
43
42
42
45
41
41
41
40
43
40
39
39
39
38
38
38
38
39
38
37
39
40
40
40
39
39
39
40
42
44
45
45
44
46
51
53
52
51
51
50
51
51
50
51
70
56
58
59
63
59
59
58
61
65
73
76
75
70
71
73
77
77
76
75
77
79
83
87
87
82
83
87
89
89
86
87
88
92
93
92
93
93
94
97
94
94
96
97
102
99
98
98
99
100
100
99
97
99
98
99
99
97
97
96
100
97
93
92
90
92
92
90
91
89
88
86
87
85
87
84
81
81
80
79
78
79
75
74
73
72
70
71
66
61
58
60
57
57
57
57
57
57
53
51
51
51
52
50
48
48
49
46
46
44
44
43
43
45
45
43
45
43
42
42
41
41
41
40
39
39
40
39
39
38
37
38
38
39
39
40
39
40
39
40
40
41
40
41
43
46
46
46
46
46
46
51
56
54
52
51
53
51
53
52
53
56
57
60
61
63
61
59
62
64
67
74
76
74
72
73
74
78
80
79
78
80
81
87
88
88
84
86
88
91
93
91
91
92
94
96
95
94
95
99
98
97
99
99
102
103
101
100
100
102
102
101
100
101
101
101
100
99
98
98
102
99
95
93
94
93
94
94
95
91
87
88
87
87
89
83
83
83
81
81
80
80
77
77
75
74
72
71
66
61
60
60
59
58
58
60
60
56
53
53
52
55
51
49
48
47
47
46
45
45
45
45
46
45
44
44
44
43
43
42
42
41
42
41
41
40
40
39
38
38
37
40
40
40
40
42
40
41
41
41
41
41
42
42
43
45
45
46
46
47
50
51
49
52
52
53
54
53
53
54
55
56
56
58
60
61
63
63
63
64
65
69
75
75
73
72
75
79
79
80
81
79
82
83
89
94
90
86
88
90
93
97
95
95
95
96
99
98
98
99
102
100
101
102
102
108
105
103
103
105
103
102
103
102
103
103
103
102
99
101
103
99
97
94
96
97
95
98
94
92
91
90
98
92
88
86
86
85
84
81
81
80
79
77
76
75
72
71
64
62
62
60
60
59
60
62
59
56
56
56
54
51
49
49
48
47
47
47
46
49
47
46
46
45
45
47
44
43
42
42
42
42
42
42
41
39
39
39
39
38
37
37
38
39
39
39
41
42
42
42
41
52
43
43
44
45
46
46
46
47
56
50
51
49
49
51
52
54
55
55
56
56
56
57
58
60
60
63
65
64
66
66
72
76
75
73
74
78
82
81
82
82
81
84
84
90
94
91
90
92
93
97
100
98
97
98
99
101
101
102
104
107
104
106
106
127
121
109
107
108
106
105
106
105
106
107
106
105
102
104
105
100
98
99
98
98
98
99
95
95
95
93
91
92
90
98
101
88
85
83
83
80
80
77
78
76
73
69
63
63
62
62
61
63
64
61
57
56
57
55
53
52
50
49
48
47
47
48
48
48
47
48
46
46
56
47
45
44
44
44
43
42
46
42
41
39
39
39
39
38
37
37
37
37
38
39
39
40
41
42
43
43
43
44
45
45
46
46
47
49
48
48
53
50
50
51
55
56
56
57
56
56
58
57
59
59
60
62
65
64
66
68
69
75
79
78
76
77
83
84
82
83
85
84
85
87
93
97
95
94
95
97
98
102
101
99
99
101
104
107
109
114
122
115
118
140
149
149
159
165
159
152
143
130
119
114
112
110
106
108
107
103
100
101
101
100
102
99
96
97
95
96
94
95
96
123
96
89
86
85
84
82
80
79
79
76
74
68
64
64
63
62
63
69
62
58
56
58
58
55
53
51
61
50
48
48
48
48
49
49
49
48
49
49
47
46
45
45
44
42
42
42
41
41
42
39
40
39
40
38
38
39
38
37
37
38
39
40
40
41
41
42
44
44
45
46
46
46
47
48
48
48
49
49
49
50
53
54
57
58
59
58
58
58
59
60
61
62
63
65
65
67
69
73
79
80
80
78
79
85
86
84
85
87
86
87
92
95
99
98
100
101
102
102
103
106
106
107
113
113
121
155
188
196
209
221
220
218
216
212
213
216
216
221
215
206
190
161
124
114
110
106
102
104
104
102
104
101
98
99
99
97
96
94
114
130
93
89
87
87
84
83
82
80
79
77
74
67
66
67
64
64
63
63
61
59
58
59
56
54
53
51
51
50
49
50
50
50
49
49
50
50
49
48
47
46
45
44
43
42
43
42
41
41
41
40
39
39
39
39
40
40
39
39
39
39
39
40
39
40
40
42
43
43
45
46
47
48
48
48
49
50
49
49
50
50
52
57
56
56
57
60
61
60
59
61
62
62
63
64
66
67
69
72
76
81
82
82
81
81
87
87
86
88
90
91
90
96
97
101
99
101
104
107
107
107
111
141
159
183
211
222
211
205
201
194
196
192
192
194
195
194
193
194
199
206
209
216
217
198
159
117
109
108
107
107
105
102
102
101
102
98
99
97
115
126
92
89
88
88
85
83
82
81
81
78
73
67
67
72
65
65
64
64
61
60
60
57
55
54
53
52
53
52
51
51
50
50
49
50
51
50
48
47
46
45
44
44
43
42
41
41
41
41
41
40
40
38
38
38
41
41
41
40
41
41
41
43
41
41
41
42
42
43
44
45
46
47
68
50
49
50
49
50
50
51
52
53
57
57
57
59
61
62
63
62
63
64
64
65
65
66
69
74
75
78
83
84
84
82
84
90
90
91
92
94
95
100
99
100
105
103
106
110
113
116
141
201
218
210
201
196
190
190
185
188
183
182
181
180
185
186
179
180
189
184
189
198
199
204
217
213
177
124
112
113
115
106
105
104
102
100
100
99
136
112
94
90
89
89
86
84
84
83
81
79
72
70
68
67
66
66
65
63
61
61
60
57
56
55
54
54
53
53
52
51
51
51
50
50
49
48
48
47
46
45
44
44
43
43
43
41
42
41
41
40
40
40
39
39
45
45
43
43
42
42
42
42
43
45
44
43
44
44
47
45
46
47
47
49
50
51
50
50
51
52
52
53
55
57
59
59
59
62
63
64
63
65
65
65
66
68
70
74
77
78
82
84
86
86
86
87
93
93
94
94
97
98
103
102
104
108
111
116
137
198
219
209
198
190
189
181
182
182
170
175
175
176
167
175
172
169
177
174
179
181
184
183
183
185
194
203
212
216
184
125
114
118
110
107
104
102
102
106
142
100
96
92
90
89
87
85
85
84
81
79
72
71
69
74
69
68
66
63
62
62
59
58
57
56
58
57
54
54
52
53
52
51
50
49
59
49
48
47
47
46
45
44
44
45
43
43
67
41
42
41
39
40
38
39
39
41
44
44
45
45
44
46
48
47
46
45
46
46
45
46
48
50
47
48
49
50
52
53
53
52
53
53
54
56
59
60
59
60
62
64
65
65
67
67
68
80
71
73
79
80
81
84
87
88
89
89
92
96
96
96
97
101
101
107
108
123
153
186
218
207
200
190
186
177
181
173
175
166
171
170
163
164
174
166
163
162
170
163
162
171
171
173
176
176
187
181
193
199
211
215
167
118
125
111
107
104
104
123
121
101
97
94
92
91
88
87
87
85
84
77
74
73
71
72
71
68
65
63
62
60
60
59
58
59
60
57
55
54
53
52
52
52
50
49
49
49
47
48
48
46
45
45
45
45
43
43
42
41
41
41
41
40
39
38
37
37
37
39
41
41
42
44
47
49
50
49
48
46
47
47
48
48
49
49
49
49
51
52
53
53
54
55
55
57
58
62
62
62
63
64
65
66
69
68
70
73
74
74
78
84
81
84
86
91
91
92
92
97
99
99
99
102
106
107
112
163
212
211
196
187
182
186
175
172
160
168
172
155
150
155
169
161
157
166
155
173
152
158
162
161
169
171
169
173
172
181
184
186
189
201
217
197
142
125
111
108
106
127
122
102
99
96
94
93
90
89
87
86
85
77
76
74
75
74
71
67
65
64
62
61
60
61
60
59
58
57
56
55
54
53
52
52
51
50
50
48
49
50
48
47
46
46
45
45
43
43
50
42
41
41
41
40
39
39
36
37
37
38
39
39
40
45
41
42
43
47
50
51
52
51
50
49
49
49
49
49
51
51
54
54
54
56
56
57
58
59
64
65
63
65
66
68
69
71
72
73
76
78
78
83
85
86
87
90
94
94
94
95
101
103
104
105
108
113
169
220
204
192
183
181
177
170
170
160
169
160
164
156
146
152
161
158
158
151
150
152
166
161
155
152
160
149
155
167
168
165
176
177
181
189
192
205
218
158
116
111
110
137
108
103
101
97
96
96
92
92
88
89
82
78
76
77
77
75
69
68
66
64
64
62
62
63
61
59
57
57
56
56
55
55
54
53
52
51
50
50
51
49
48
48
48
48
46
49
44
43
51
42
44
43
41
40
39
39
37
36
37
37
38
38
39
40
40
41
42
46
45
46
46
47
49
50
49
50
49
50
53
50
52
55
56
56
57
57
57
59
61
64
68
66
67
69
69
73
75
76
76
79
80
80
86
86
89
92
96
96
95
97
99
107
107
109
119
191
214
196
188
186
170
177
169
163
158
161
169
159
155
143
157
147
153
157
153
160
162
156
156
153
147
159
142
165
155
164
160
166
167
168
172
176
184
188
204
219
168
117
131
138
109
105
103
99
98
98
94
93
90
89
80
79
79
81
78
74
71
69
68
66
64
64
64
63
62
60
58
57
57
57
56
55
54
52
53
52
52
51
50
49
48
48
47
46
46
45
44
43
42
42
43
41
41
40
39
39
37
38
37
37
38
38
38
38
39
40
41
42
43
44
45
45
45
46
47
48
48
49
50
51
52
53
55
57
57
59
58
59
62
68
65
68
67
69
70
73
77
78
78
79
81
82
83
88
90
93
95
100
99
99
100
107
111
127
202
209
194
183
176
174
160
170
162
164
161
165
158
149
162
141
143
151
139
148
144
153
144
157
150
157
143
152
145
155
142
163
148
154
158
167
167
171
176
182
193
201
218
184
128
134
110
109
104
101
100
99
96
95
94
86
82
80
90
81
78
74
73
71
70
67
66
67
65
63
62
61
58
59
59
58
56
56
53
53
53
52
62
50
49
49
54
48
48
46
46
45
44
43
43
41
41
41
41
40
39
38
37
38
38
39
38
39
39
39
40
40
40
42
43
44
44
45
45
47
47
50
48
49
49
50
57
53
55
56
57
59
59
60
62
62
64
66
68
67
70
74
78
82
81
81
82
84
85
87
91
93
96
100
102
101
104
108
130
207
204
189
187
187
169
162
156
156
163
159
152
152
159
152
154
154
149
147
143
153
144
154
141
155
156
147
148
149
138
146
144
152
157
161
157
155
160
166
170
178
177
187
198
217
197
143
112
109
106
103
102
101
98
96
94
86
84
82
85
82
78
75
74
72
70
70
68
66
69
64
63
62
61
59
60
59
57
55
54
54
53
52
52
50
50
49
70
48
48
46
46
46
45
45
42
42
41
41
41
40
39
38
37
38
38
38
39
39
39
40
41
42
42
42
43
48
44
45
46
48
47
47
48
50
52
53
53
53
55
57
58
60
61
62
63
65
64
65
69
69
71
74
77
82
84
83
84
86
87
90
92
97
96
101
103
105
107
125
207
204
194
180
162
162
170
169
152
151
148
139
157
152
156
143
136
145
130
141
145
144
137
139
149
148
145
152
147
144
139
151
157
140
157
148
161
162
165
163
163
164
173
183
189
192
218
186
117
111
109
105
105
102
98
99
92
88
86
87
85
82
80
77
75
74
74
70
68
67
66
65
64
64
62
60
60
59
57
56
56
54
53
52
51
50
49
48
51
47
47
46
46
45
44
44
42
41
40
40
40
39
39
37
37
38
39
40
40
40
41
41
41
42
43
43
44
44
45
47
47
48
49
48
49
50
50
53
55
56
56
56
58
60
61
62
63
64
65
66
68
70
73
75
77
81
85
85
86
88
91
91
93
96
97
102
105
109
120
206
207
189
187
177
167
162
154
163
146
153
152
138
150
159
149
154
141
150
138
144
145
141
150
136
149
147
144
143
151
146
145
151
156
142
158
149
151
162
156
154
163
164
164
167
184
193
196
216
180
115
111
107
106
103
101
99
92
90
91
89
84
84
81
78
77
77
74
71
70
68
68
67
66
64
63
61
60
59
58
57
56
54
53
52
50
49
49
48
47
47
47
46
44
44
43
43
42
41
39
40
39
39
38
38
38
39
39
40
40
41
43
43
44
45
44
45
44
44
45
48
46
48
48
48
51
50
51
51
53
60
55
57
58
59
61
63
65
64
71
67
68
70
78
76
79
81
84
87
88
89
93
94
94
96
100
103
109
138
198
209
189
191
179
172
163
159
143
149
142
144
144
144
150
133
155
151
135
145
145
146
136
151
138
147
131
150
137
146
145
139
146
148
148
138
150
142
139
143
155
148
151
155
162
171
174
182
184
200
217
166
114
110
109
104
103
97
94
94
93
89
88
85
81
80
81
77
75
72
71
69
69
67
66
63
63
61
60
58
57
57
55
53
52
51
50
49
48
48
47
46
46
45
45
44
44
42
41
40
40
40
39
39
39
38
47
45
43
42
42
42
41
42
43
44
44
45
45
46
46
47
47
48
48
49
49
51
51
52
53
54
54
56
58
59
60
61
63
65
67
68
70
72
74
77
79
84
86
87
90
92
95
96
96
98
103
107
115
192
208
197
183
181
177
172
149
164
141
155
151
132
148
141
153
147
130
151
153
145
130
145
145
141
147
138
147
143
145
146
145
153
142
151
148
145
147
150
144
150
148
152
156
161
165
158
172
176
179
189
198
218
150
113
110
105
103
97
96
97
93
93
89
85
84
83
80
78
75
74
71
69
68
67
65
63
62
61
59
58
56
56
54
52
51
50
49
48
47
47
48
46
46
45
45
43
43
42
41
42
40
39
40
39
38
38
47
49
51
52
51
49
46
46
45
46
46
57
46
47
52
48
49
49
49
50
51
51
52
53
54
54
55
56
57
59
60
62
64
65
67
69
72
73
75
78
80
85
88
88
90
95
97
99
98
101
105
110
168
215
191
194
173
169
176
169
157
146
152
150
139
151
146
147
154
160
143
145
148
151
149
142
143
147
143
142
139
148
133
151
134
142
147
147
154
146
143
149
150
148
145
149
161
144
156
158
162
168
179
182
192
202
212
133
111
109
101
99
100
97
97
93
90
89
85
82
80
77
75
73
71
70
67
66
64
62
62
61
60
58
56
55
54
52
51
50
49
48
48
47
47
46
45
44
44
43
42
41
43
40
40
39
39
39
38
38
38
40
41
41
43
47
51
54
56
55
55
55
53
52
50
50
49
49
51
50
52
53
55
55
56
57
56
59
60
61
61
63
65
66
68
72
74
75
78
79
81
83
88
92
91
93
98
101
101
103
109
123
212
197
182
158
153
162
172
157
145
147
155
139
134
138
149
156
136
152
156
142
137
143
138
144
146
138
133
147
146
136
153
139
137
146
141
161
147
147
131
152
150
146
150
150
150
146
161
157
173
164
165
175
183
190
206
201
118
109
102
102
100
100
96
95
94
89
84
81
79
77
76
74
72
69
67
65
63
62
61
61
59
58
56
55
54
53
51
50
50
49
48
47
49
47
45
44
44
44
42
42
41
40
40
39
39
67
39
38
39
40
41
40
41
41
42
44
46
49
52
54
57
59
61
60
60
57
54
53
52
53
54
55
58
58
59
60
62
63
66
65
66
68
71
73
75
77
79
81
81
83
87
94
94
93
99
102
103
106
112
191
203
189
173
156
154
164
164
140
148
143
157
145
142
159
146
152
144
137
117
157
159
145
144
135
146
146
134
143
140
138
140
133
141
150
131
144
133
148
141
157
154
153
147
152
142
154
149
164
153
161
159
172
178
192
195
213
173
110
107
104
103
101
100
98
93
89
85
82
80
79
76
74
72
69
67
65
64
63
63
62
62
59
57
58
55
54
53
52
51
50
49
49
48
48
45
49
44
43
43
42
44
41
40
42
38
39
39
38
42
44
44
44
44
43
43
43
44
45
46
47
48
50
52
56
61
64
65
64
62
59
57
56
58
59
59
60
62
62
63
66
67
69
71
74
76
78
79
80
83
84
88
91
97
95
98
103
106
109
155
210
189
173
170
145
136
155
156
139
150
149
160
147
148
148
149
153
141
130
141
135
131
151
136
131
150
154
133
144
139
137
160
132
145
137
146
136
144
156
145
143
146
144
146
152
149
156
159
155
153
157
166
171
171
183
181
200
218
140
109
107
105
101
99
96
93
89
87
83
81
79
77
75
73
72
69
68
67
67
65
63
61
59
58
57
57
55
54
53
52
51
52
50
50
49
48
47
47
46
45
45
44
42
42
41
40
40
40
39
41
42
42
43
43
45
47
49
48
49
50
50
49
50
50
51
52
54
57
58
62
64
67
68
67
65
64
63
64
63
64
65
66
69
71
73
76
78
82
81
83
86
89
92
95
99
99
103
109
123
207
197
182
174
165
143
150
157
152
132
150
154
145
142
146
162
158
135
110
143
133
145
140
150
133
142
149
143
139
142
137
138
124
149
139
138
150
150
148
141
129
158
144
146
141
153
146
148
154
152
143
160
153
167
168
174
183
190
203
203
115
109
103
99
98
96
94
89
87
85
85
84
83
82
79
77
75
72
70
68
66
64
63
62
60
59
59
59
60
57
55
52
50
50
49
48
47
46
46
45
45
44
43
43
42
42
40
40
40
39
41
42
42
43
45
46
47
49
48
48
50
51
52
52
51
52
53
54
56
57
56
56
58
63
67
70
73
74
73
71
69
68
70
71
73
75
77
80
83
84
86
89
91
93
96
101
101
105
111
182
207
188
182
165
157
139
146
132
135
127
151
146
131
149
144
161
144
152
150
139
138
140
145
139
148
134
126
135
147
128
128
130
149
157
136
145
126
120
153
147
156
149
151
151
149
154
149
146
156
149
143
148
157
164
165
163
170
194
196
214
169
109
105
101
98
96
95
93
92
90
86
82
80
79
76
74
72
70
67
66
64
62
61
61
60
60
59
58
56
55
55
54
51
50
49
49
48
47
46
45
44
44
44
42
41
41
40
39
40
39
44
46
47
47
47
47
49
47
48
49
50
51
51
53
55
53
53
53
54
57
58
60
60
59
60
61
62
65
71
74
77
79
80
81
81
81
82
84
86
89
91
93
94
95
98
100
104
108
131
212
188
181
173
154
152
141
145
159
152
147
138
149
148
149
142
146
156
149
151
146
137
138
147
140
156
129
132
141
134
136
146
143
136
141
131
152
145
151
134
143
157
141
145
121
151
148
154
154
137
146
151
151
159
159
152
165
178
174
202
203
215
123
108
103
102
100
98
96
92
88
85
82
80
78
78
75
73
70
67
66
64
63
61
60
59
58
58
57
56
54
53
52
51
50
49
49
49
49
49
46
45
44
43
43
41
42
40
39
39
38
43
44
45
47
47
46
45
45
46
47
48
49
50
50
54
51
52
53
56
60
59
59
61
61
62
61
62
63
64
67
70
73
77
80
85
87
87
86
85
88
91
94
98
98
99
103
106
112
196
199
186
178
166
150
151
136
144
154
146
150
152
161
151
154
138
106
133
124
146
132
131
136
139
116
132
139
149
135
148
124
131
133
138
149
137
130
141
126
141
137
149
148
146
155
124
145
151
148
146
154
149
149
163
160
163
166
170
172
181
196
210
179
112
108
104
101
99
98
96
93
90
88
85
83
81
78
77
75
71
69
65
63
62
60
59
58
57
55
54
53
52
51
51
50
49
48
48
48
47
46
45
45
44
43
41
41
41
40
40
39
41
42
43
43
43
44
45
45
46
47
48
49
50
50
50
50
51
53
54
56
57
59
62
62
63
63
62
65
67
68
69
71
73
76
85
82
86
88
89
90
92
94
96
100
103
106
109
143
215
193
172
171
157
157
152
149
140
134
143
139
159
150
131
147
133
135
130
150
138
137
145
117
145
131
130
134
121
131
132
145
136
130
146
130
139
143
129
129
131
135
118
143
155
129
141
149
151
159
139
157
157
152
152
153
163
162
177
175
178
187
201
220
124
110
107
103
101
98
95
94
90
87
87
88
80
79
76
74
72
72
71
69
66
63
61
59
57
55
54
54
51
51
50
49
51
48
48
48
48
48
46
45
44
43
43
42
41
40
40
39
42
42
43
43
43
44
44
45
46
47
47
48
49
50
51
52
52
53
54
55
56
58
59
61
63
64
66
67
67
68
70
72
73
74
77
80
82
84
89
93
97
97
98
101
104
109
113
191
197
185
176
170
154
144
143
138
159
148
148
132
137
166
147
140
133
142
132
134
146
140
133
135
145
136
127
128
124
138
140
132
110
145
120
124
130
124
132
142
120
122
129
139
147
150
139
133
155
140
144
154
147
151
163
152
162
160
171
179
180
183
188
217
178
113
108
103
100
98
96
93
90
87
84
82
80
79
77
76
73
70
69
68
68
65
64
63
60
57
55
54
53
52
50
49
48
47
47
47
46
46
45
45
45
44
43
41
40
40
40
39
43
44
45
59
45
45
45
46
46
47
48
49
50
50
50
50
52
54
55
56
57
57
60
60
60
62
64
67
69
71
72
72
74
75
78
80
81
83
86
91
96
100
102
104
105
111
132
212
189
177
170
169
150
149
142
138
135
146
163
141
148
146
155
145
138
152
137
140
128
131
119
131
132
140
130
134
128
140
126
138
114
134
130
119
115
144
145
151
133
120
138
139
140
148
153
145
145
124
143
150
147
158
153
151
151
171
168
169
184
175
186
200
217
132
109
105
102
99
96
94
91
88
85
83
81
79
77
76
73
71
68
66
65
65
64
63
62
62
61
59
55
52
51
49
48
47
47
47
46
46
44
43
42
42
42
42
41
40
39
39
47
48
49
48
47
46
46
46
47
48
48
48
50
49
49
53
52
53
55
57
57
57
58
59
60
63
64
65
67
70
71
72
74
77
79
81
83
84
87
90
95
98
102
105
108
116
182
198
179
170
164
167
147
152
150
144
145
152
155
148
138
138
141
142
145
116
135
118
143
127
110
131
137
132
128
132
121
112
132
118
135
122
118
120
115
132
149
130
121
134
147
134
143
160
138
150
141
131
134
147
130
158
157
150
158
164
171
165
174
174
185
192
210
175
113
107
103
101
98
97
94
91
86
85
83
81
79
77
74
71
69
67
65
64
63
62
60
61
60
60
60
59
57
53
51
47
47
46
46
44
44
43
42
41
40
39
39
39
38
38
43
44
44
45
44
45
46
46
48
48
50
51
49
49
49
51
52
53
55
56
59
57
58
60
60
62
63
65
66
69
71
72
75
78
81
83
85
88
89
91
95
97
102
105
111
121
209
193
173
169
163
151
151
143
134
140
134
146
158
137
138
145
146
138
149
140
146
126
139
109
127
132
131
127
141
118
125
129
121
125
120
120
116
119
119
132
146
131
99
126
119
132
130
144
151
143
151
142
154
144
148
149
175
166
167
159
165
164
174
176
179
192
205
215
135
111
107
102
98
96
93
91
88
89
85
82
80
78
76
74
70
68
67
64
63
62
60
59
59
58
56
55
57
59
58
55
52
48
46
44
44
44
42
41
40
39
39
38
38
38
41
42
43
43
43
44
45
46
46
47
47
48
50
50
51
51
53
53
54
55
56
57
59
60
62
62
63
65
66
70
71
74
77
81
83
86
87
90
94
96
97
98
103
107
115
164
206
183
172
162
171
149
152
144
141
135
137
152
156
134
142
148
145
131
133
135
121
133
123
120
117
135
129
128
121
116
144
108
119
133
130
144
117
133
136
136
130
124
87
117
145
138
123
120
141
144
144
145
149
141
148
155
165
151
150
149
159
162
168
178
179
187
196
220
169
113
107
105
102
98
93
90
88
85
85
85
83
80
77
75
72
70
68
66
64
62
61
60
59
59
58
56
54
52
51
52
52
53
51
49
46
44
42
41
41
41
40
39
39
38
41
41
43
43
43
44
45
46
47
48
49
50
51
51
53
53
53
53
56
54
56
57
60
59
62
62
64
65
67
68
72
75
78
82
83
84
87
90
94
97
101
103
104
115
117
193
193
178
171
156
154
148
144
140
145
144
139
148
139
124
134
127
125
140
131
140
139
137
139
126
119
128
134
125
126
120
138
133
123
129
123
119
106
131
100
116
109
125
85
118
131
107
133
132
127
131
148
137
142
140
149
140
144
162
154
163
152
172
169
167
177
185
197
209
203
119
109
104
102
99
98
94
89
85
83
81
82
81
80
77
73
70
70
69
67
63
61
59
59
58
57
56
56
54
53
52
49
48
48
49
50
48
46
43
41
40
40
40
40
38
41
42
41
43
43
44
45
47
50
49
49
50
50
52
51
51
52
54
55
56
56
58
58
60
61
62
65
66
68
70
74
77
79
80
81
83
87
91
95
99
101
104
107
119
132
213
191
170
160
144
148
147
154
152
146
137
140
136
146
139
123
132
130
142
137
123
136
129
137
133
129
125
127
117
122
112
118
114
100
132
139
123
125
134
145
134
116
122
104
109
138
118
119
87
124
147
147
131
120
155
147
153
157
151
144
168
151
155
158
163
176
181
191
199
219
124
111
107
103
99
96
94
93
90
84
81
79
78
78
78
76
74
70
68
67
65
63
61
59
58
57
55
54
55
54
52
50
49
48
48
47
47
48
48
46
43
41
40
39
39
42
42
41
43
44
45
46
48
48
50
54
50
50
51
51
52
54
54
55
56
58
58
58
59
61
62
64
65
67
70
73
75
76
79
81
84
88
92
96
101
104
107
111
119
170
205
181
167
167
157
149
153
141
150
146
147
134
132
143
127
130
143
131
129
135
142
127
132
127
138
116
117
129
112
130
112
121
130
124
121
130
132
127
105
127
134
120
130
119
117
132
132
141
113
117
124
138
161
150
144
129
137
160
144
150
161
141
159
158
160
171
181
186
190
217
161
113
107
103
101
97
94
91
89
87
85
81
78
76
74
74
74
73
71
67
65
66
64
60
59
58
55
54
53
52
55
53
51
50
48
47
46
46
45
45
45
44
43
40
39
42
43
43
45
45
45
52
47
48
49
50
51
52
51
52
53
53
55
56
57
58
59
60
60
62
63
64
65
67
70
71
74
78
80
82
86
90
93
96
99
103
107
117
135
201
196
179
172
161
148
148
153
149
143
135
146
140
130
137
141
126
145
127
134
126
136
119
128
119
118
142
120
114
124
110
115
122
139
129
126
119
120
116
100
113
113
96
134
118
131
106
136
133
140
121
120
134
148
160
154
146
150
164
153
157
167
164
170
152
156
166
179
184
193
210
197
115
109
105
101
98
96
92
89
87
86
85
80
76
75
71
69
70
70
70
66
65
65
62
59
59
57
55
54
53
52
53
53
52
52
49
49
46
45
44
44
43
43
42
42
43
45
45
47
46
47
46
48
48
50
51
52
52
52
53
53
55
56
57
56
58
59
59
61
62
63
65
67
69
70
72
76
78
80
84
87
89
92
93
97
102
106
114
149
213
190
176
168
157
159
151
152
154
148
138
153
138
143
135
138
124
127
144
139
138
129
124
140
129
121
135
133
127
118
125
124
114
122
123
130
119
120
116
123
129
129
131
109
126
128
110
132
126
133
124
131
130
141
128
125
137
133
154
149
154
145
161
162
151
154
159
169
177
179
202
218
123
110
106
102
99
96
93
91
88
85
84
84
80
75
71
69
67
67
67
67
66
65
64
61
59
57
57
56
55
53
52
50
51
52
52
49
47
45
48
43
43
42
42
41
44
49
47
48
48
47
47
48
49
50
52
52
53
53
54
54
56
57
57
57
58
58
59
62
62
64
66
68
70
72
75
76
79
80
82
85
87
92
94
99
103
107
115
163
210
183
174
162
157
147
144
145
140
152
141
142
122
130
145
134
138
135
139
126
121
128
117
124
140
134
126
118
110
118
110
124
122
129
102
121
95
119
111
113
121
108
116
130
105
105
99
107
123
132
129
119
125
126
134
141
127
121
136
157
145
151
156
158
151
150
159
167
170
182
188
218
146
112
107
105
100
96
94
89
88
88
86
84
83
79
74
69
67
66
66
66
66
66
65
62
60
59
60
57
56
55
53
51
51
49
51
52
49
48
45
44
43
41
41
41
44
45
47
49
49
48
49
50
50
51
51
52
52
52
55
56
56
57
56
56
57
58
59
61
62
64
66
68
70
72
77
79
81
82
85
88
92
96
97
102
106
110
120
182
199
181
174
167
152
144
151
164
150
147
142
138
134
143
129
126
133
127
126
124
130
116
126
123
139
122
121
132
118
107
122
115
115
126
120
122
112
130
115
114
128
113
120
128
126
96
134
126
127
163
108
112
118
134
129
133
142
158
146
147
155
141
155
142
161
169
141
173
176
177
185
210
181
113
108
104
102
99
94
90
87
86
85
84
82
81
78
72
68
66
65
66
65
65
65
66
61
58
58
58
57
56
55
54
51
50
49
48
51
50
46
44
43
41
41
41
46
48
49
50
52
51
51
51
60
53
52
52
53
53
55
55
55
56
56
56
57
58
60
61
62
64
70
68
70
73
77
77
80
82
85
90
93
95
99
103
107
111
123
202
193
174
167
162
155
156
147
141
143
150
149
148
146
131
132
139
133
137
130
133
127
123
113
127
118
142
123
122
116
116
135
120
127
134
121
132
115
111
117
136
120
131
116
123
107
109
119
124
128
135
148
116
154
154
110
108
146
142
148
133
155
148
157
143
163
166
151
156
164
168
179
206
203
116
109
105
102
100
97
91
88
85
85
84
82
80
81
77
72
68
66
66
65
64
63
63
66
61
58
57
57
56
54
53
53
51
50
49
47
47
48
47
43
42
41
40
50
51
51
51
52
53
54
53
52
53
53
52
52
53
53
54
55
56
56
57
57
58
59
60
62
64
66
68
70
75
77
78
80
83
87
89
92
97
101
104
107
112
126
214
190
178
164
165
153
152
147
153
148
140
147
137
128
127
135
128
131
136
122
136
134
109
128
120
136
122
121
109
138
139
121
122
123
110
114
130
128
127
120
126
112
111
124
127
124
124
121
116
120
115
156
209
164
129
133
114
137
127
135
132
149
143
139
145
156
168
159
158
160
167
173
192
220
121
111
107
103
100
98
94
89
86
84
83
84
82
80
80
76
71
67
66
65
65
62
62
62
63
59
56
55
55
54
53
52
51
51
51
49
47
45
45
46
45
43
40
49
49
50
52
51
50
53
53
51
52
52
52
53
53
53
52
53
55
55
57
57
58
59
61
62
65
67
69
72
76
78
79
81
84
87
88
93
98
101
105
108
114
150
213
188
175
161
166
147
155
148
145
147
127
137
135
131
141
133
137
118
140
136
131
130
107
131
114
116
131
132
130
125
113
126
136
125
119
117
120
124
122
129
110
116
128
122
132
140
115
122
110
108
121
108
129
124
135
140
122
126
145
121
136
141
138
149
138
157
151
157
148
152
178
184
194
216
142
112
108
104
101
98
96
91
88
86
85
84
82
80
79
78
74
70
66
64
63
62
60
61
60
60
60
55
53
52
53
52
52
50
50
50
50
47
44
45
44
45
43
47
50
51
51
52
52
51
53
54
53
52
53
51
51
52
52
53
54
55
57
58
58
60
61
63
66
68
70
73
76
78
80
82
86
85
88
93
96
101
105
109
116
178
202
178
166
160
159
151
144
148
150
141
140
135
146
139
118
134
129
136
137
143
116
127
138
126
124
111
119
128
131
133
123
127
121
129
119
122
117
125
115
127
102
119
122
128
116
125
135
120
127
117
130
118
120
140
124
116
122
128
150
130
131
148
139
142
155
140
150
164
167
165
164
173
188
211
167
113
109
111
105
100
97
93
89
87
85
84
81
80
78
77
74
71
68
64
64
62
65
60
59
57
59
57
53
52
51
51
51
51
50
49
49
49
47
44
44
42
42
49
51
52
53
54
52
52
63
54
53
52
52
51
51
52
53
52
54
55
57
57
58
60
62
64
66
81
70
73
76
78
81
83
84
85
90
93
98
101
106
109
115
186
199
183
171
159
152
154
149
138
149
153
138
136
130
144
140
129
110
140
128
126
126
129
137
118
122
125
118
99
120
135
125
125
128
131
121
123
119
119
128
127
125
122
119
124
124
115
130
123
113
122
127
114
120
126
146
125
120
124
133
146
147
144
144
138
161
138
157
151
164
166
167
167
189
205
186
116
110
121
135
108
97
93
90
87
85
83
81
79
77
76
73
71
69
66
63
62
60
60
59
57
56
56
56
54
51
50
51
51
50
49
47
47
48
46
44
42
41
50
51
53
54
54
53
70
53
52
54
53
52
51
51
51
52
53
54
55
56
57
59
61
62
64
66
68
70
73
76
79
81
82
85
89
90
96
99
104
106
109
117
199
193
173
174
160
158
152
141
145
134
147
137
147
138
136
135
135
127
132
133
120
120
126
127
126
137
130
118
118
127
129
112
103
120
122
104
113
129
116
134
113
104
119
104
116
125
125
119
132
118
123
131
139
144
133
138
124
129
132
121
129
146
142
154
138
147
155
126
168
166
151
164
168
182
198
199
119
112
115
139
115
99
94
90
87
85
83
81
79
77
76
73
70
68
67
65
62
61
60
59
57
56
55
53
54
54
52
50
50
52
51
48
47
48
48
48
46
42
51
51
53
53
53
55
55
60
53
52
53
53
52
52
53
53
53
54
56
57
58
59
61
63
64
66
68
70
73
76
79
81
83
87
91
96
98
100
103
105
109
116
206
189
181
160
155
157
151
149
139
143
137
131
145
144
140
114
125
109
147
132
133
121
131
122
121
109
128
136
122
128
132
118
117
138
120
109
119
116
106
139
125
118
115
124
114
121
115
112
115
113
120
128
136
130
136
116
133
137
126
131
121
107
135
158
141
133
151
143
156
148
156
161
159
177
200
213
122
114
109
122
102
99
94
90
87
84
83
81
79
77
75
72
70
68
66
65
63
60
60
60
58
57
56
53
52
53
55
51
50
50
51
51
49
47
46
46
48
47
53
53
53
53
53
54
55
54
53
54
53
54
55
54
53
54
55
56
57
57
68
60
62
63
64
66
68
70
74
76
78
81
84
88
91
93
97
100
103
106
110
120
210
182
173
163
153
130
150
153
138
151
137
137
140
146
129
134
137
124
137
126
125
129
110
138
131
111
126
115
120
113
130
119
128
119
126
125
119
112
121
131
120
119
103
126
121
116
127
108
120
116
134
100
128
120
123
109
124
134
138
146
154
126
126
144
164
137
133
150
147
159
149
168
173
184
193
217
124
114
107
111
100
100
95
90
86
84
83
80
79
76
75
72
70
67
66
65
63
61
60
60
59
57
57
55
52
51
51
52
52
51
49
49
50
50
47
46
45
47
54
55
55
53
53
53
54
54
53
53
53
53
56
55
55
55
56
57
57
58
60
60
62
63
64
66
68
71
74
76
79
81
85
93
89
92
96
101
102
106
110
134
212
179
173
157
143
147
138
149
141
134
137
138
147
139
144
122
116
137
131
130
119
107
113
123
126
113
109
124
133
125
124
112
122
109
133
114
112
115
113
129
107
114
136
119
122
127
121
132
110
130
120
129
124
132
137
114
124
133
134
131
128
124
129
132
155
143
130
157
155
154
155
158
170
177
190
217
136
114
107
103
102
99
94
89
86
83
82
80
78
76
74
71
69
67
65
64
63
61
60
59
59
57
58
56
55
51
50
50
51
51
50
49
48
48
48
48
47
46
58
56
57
55
53
53
54
53
54
55
54
53
53
55
58
57
57
58
59
59
60
60
62
63
64
66
69
71
74
76
79
83
85
86
88
92
94
98
102
106
111
154
201
176
163
155
147
147
148
143
145
135
151
130
145
129
144
126
133
127
117
125
120
131
116
130
126
128
128
127
122
128
120
121
130
118
129
126
114
107
117
103
100
107
113
121
114
128
109
120
124
116
107
113
118
121
118
123
140
133
152
117
123
136
134
142
141
140
149
143
152
158
158
148
163
180
185
217
158
113
108
104
103
98
95
89
86
84
82
80
78
76
74
71
68
67
64
63
63
61
60
60
59
57
58
58
58
55
52
50
49
50
51
50
48
47
47
49
49
49
56
57
57
56
54
53
57
53
52
53
54
53
54
56
56
59
60
59
59
60
60
60
62
63
66
66
69
71
74
76
80
83
84
86
88
92
94
98
102
105
111
164
195
175
160
151
150
135
139
145
132
141
135
141
146
132
123
121
143
115
132
115
117
131
113
147
125
127
123
116
134
117
125
120
107
112
123
119
119
120
115
101
111
114
126
123
124
117
111
106
117
115
112
111
132
110
124
132
122
134
140
122
138
130
133
132
141
149
143
159
150
155
147
162
171
180
192
212
176
113
107
105
102
98
93
89
86
83
82
81
78
76
73
71
69
66
64
63
62
61
60
60
58
57
56
56
57
57
56
52
49
50
50
51
50
48
47
48
50
51
56
58
57
56
55
53
54
53
52
53
53
64
56
58
57
58
59
59
59
61
59
61
63
64
65
66
70
72
75
78
81
82
85
87
89
92
95
100
103
106
111
172
197
175
160
158
138
145
147
139
137
147
132
143
144
135
143
132
130
142
134
124
132
124
133
118
142
104
106
121
112
112
116
114
121
126
120
102
135
124
99
117
112
107
129
125
115
125
111
118
117
113
111
110
125
118
130
129
127
146
143
147
158
146
140
133
135
150
143
144
145
148
156
149
177
179
189
211
176
113
108
104
101
96
92
90
86
84
82
81
78
76
73
71
68
66
64
63
62
61
61
60
58
57
57
55
55
56
56
54
53
51
50
50
50
50
48
49
49
50
54
58
58
57
55
54
54
54
53
54
54
54
56
56
59
58
58
59
59
59
59
61
63
63
65
67
70
72
75
78
81
82
85
86
90
93
97
100
103
106
112
179
195
170
161
153
153
143
142
141
146
143
141
134
134
117
136
159
134
145
130
122
127
120
127
125
127
126
119
107
111
123
102
124
117
120
139
133
114
122
94
115
112
102
98
121
109
114
113
137
119
120
105
106
126
137
123
132
115
139
124
142
143
146
133
135
138
152
143
146
146
145
161
142
168
169
186
208
181
113
107
104
101
97
93
89
86
84
82
80
79
76
73
70
68
66
65
63
62
61
62
60
58
57
57
56
55
55
55
56
55
54
53
51
50
50
51
50
49
49
54
56
58
58
57
55
55
70
54
54
53
53
54
54
55
57
59
58
59
60
60
61
62
63
65
66
70
72
75
78
81
83
84
88
90
93
96
100
103
106
112
177
193
179
164
145
150
147
139
145
134
148
131
128
136
131
115
134
134
120
148
126
140
135
116
137
133
137
119
115
129
129
122
94
117
114
137
120
109
118
106
89
104
95
113
121
90
108
131
115
111
123
103
120
130
117
124
126
133
126
148
135
132
139
145
151
143
161
148
160
139
147
156
162
167
180
187
210
186
115
109
105
101
97
93
89
86
84
83
81
80
76
73
70
68
66
64
63
61
61
60
60
59
58
58
57
56
56
57
55
55
56
55
54
52
49
49
50
49
49
55
56
57
58
58
57
57
56
55
54
53
53
54
54
58
55
57
59
59
60
60
67
62
63
65
67
69
71
75
78
81
83
86
87
89
93
96
99
102
106
112
182
192
178
166
144
144
159
149
155
135
146
120
140
123
134
143
151
139
132
134
140
120
124
138
123
128
125
121
129
125
99
114
117
100
110
117
109
118
97
120
113
112
106
125
128
105
105
112
104
122
121
114
131
131
128
111
120
130
117
125
134
138
139
144
149
137
149
146
149
140
152
169
157
161
173
185
201
186
113
108
104
100
96
92
89
86
84
82
81
79
76
72
70
68
65
64
63
62
60
59
60
60
58
58
57
58
57
57
57
56
55
56
56
54
52
50
49
49
50
55
56
58
58
58
57
57
57
67
55
53
52
52
53
52
54
55
57
60
60
60
61
63
63
65
67
69
71
75
77
80
82
85
87
91
91
95
98
102
107
111
184
195
177
169
157
145
146
144
143
152
143
138
145
134
139
137
133
147
134
131
139
124
138
131
118
122
134
127
126
106
113
115
108
104
104
120
121
124
128
116
120
127
117
116
119
109
118
111
117
107
114
110
121
110
127
131
113
122
123
132
126
135
134
145
141
136
150
151
149
147
155
168
165
153
177
186
205
187
113
109
105
100
97
94
90
86
85
82
80
79
76
73
69
68
66
64
63
64
60
59
59
60
58
59
58
56
56
57
57
57
55
56
55
55
57
53
50
50
51
58
58
58
58
58
57
58
58
58
56
53
53
52
53
52
53
53
55
57
61
62
61
63
65
66
67
69
72
74
77
80
82
84
86
89
91
95
98
101
106
111
180
192
173
172
155
153
148
146
154
135
144
144
130
139
132
134
115
140
121
140
119
132
140
133
133
120
123
118
113
142
128
113
103
110
106
95
107
107
119
118
110
121
121
97
115
120
132
118
128
112
108
89
139
125
131
125
126
128
141
121
130
145
141
138
140
134
151
133
147
148
156
157
170
173
174
188
205
185
114
109
105
102
98
94
91
87
85
82
81
79
76
73
70
68
65
63
63
62
60
60
59
60
58
59
58
56
56
57
57
57
56
56
55
55
56
55
55
54
53
56
57
58
58
58
58
58
59
58
56
54
54
53
53
53
53
53
54
55
57
62
63
64
64
68
68
69
77
75
77
79
81
82
85
87
90
93
98
101
106
111
182
196
172
166
158
154
158
150
140
142
139
145
124
142
134
135
123
133
133
125
127
128
133
128
121
127
131
103
127
107
115
110
118
114
112
103
116
126
107
113
113
111
123
114
110
123
128
129
122
126
107
107
116
113
131
123
118
136
131
135
146
130
145
144
147
146
136
142
148
160
162
165
165
162
179
184
206
184
114
110
106
102
98
95
91
87
85
82
81
79
76
73
70
68
66
64
62
61
60
60
64
59
58
58
58
56
56
57
57
57
58
57
57
57
58
57
56
57
57
54
55
60
57
56
56
57
59
73
58
56
54
55
54
53
53
54
54
55
57
59
62
65
66
67
68
69
72
75
77
79
81
83
85
87
91
94
98
102
106
111
174
194
176
158
159
167
148
152
152
145
151
145
139
144
137
138
144
132
123
124
138
124
121
128
123
124
132
132
132
129
114
93
107
131
113
99
114
120
126
104
110
121
108
102
108
124
112
112
115
128
94
109
118
124
120
107
117
133
131
128
137
131
137
133
138
141
146
154
141
153
152
168
160
167
184
188
209
184
113
108
104
101
98
94
92
88
85
82
81
79
76
73
70
67
65
64
62
61
60
60
59
59
57
60
58
58
56
58
58
57
56
57
58
58
59
59
60
58
53
54
56
56
57
56
56
56
57
59
60
57
57
57
55
53
53
54
55
57
56
59
59
62
65
68
70
71
72
75
76
79
81
83
86
89
92
96
99
101
105
111
172
199
168
163
171
165
154
142
153
137
127
130
136
139
127
130
138
132
135
120
134
126
119
138
132
126
128
126
124
107
103
130
128
125
110
130
105
106
124
123
97
113
124
122
107
112
123
109
133
119
135
103
115
106
120
119
120
108
124
128
136
130
139
129
144
147
152
135
151
163
156
169
173
167
172
188
205
175
113
109
105
101
97
95
91
89
85
82
81
78
76
72
70
67
65
64
63
61
60
59
59
59
57
57
58
57
57
57
58
58
58
58
58
59
61
60
58
55
54
55
56
56
56
57
56
55
56
57
60
60
59
58
57
55
54
54
54
56
57
59
59
61
64
66
68
69
72
76
77
80
82
84
87
90
94
95
96
100
105
111
165
190
156
169
166
154
149
144
135
141
149
146
134
146
141
152
141
135
122
134
131
124
123
137
133
129
107
126
111
111
128
128
114
121
122
144
116
125
121
115
129
120
121
101
103
104
127
127
115
128
138
129
117
102
124
132
125
116
129
137
129
147
132
141
143
153
154
143
145
164
159
152
167
167
171
184
208
171
112
108
104
102
98
95
92
89
85
82
81
79
76
74
69
67
65
63
62
61
59
59
59
59
57
58
57
57
56
57
58
59
60
60
60
60
58
56
57
57
55
50
53
55
56
57
57
55
55
56
58
60
60
59
57
56
55
56
55
57
58
59
60
61
62
65
68
69
71
74
77
81
83
84
88
89
90
93
96
100
104
110
153
192
166
162
162
155
150
153
153
149
137
148
137
141
139
134
129
140
134
124
134
113
123
129
111
121
118
132
133
104
127
125
131
130
103
117
120
123
127
125
114
120
109
108
107
121
110
125
120
104
110
114
126
108
115
124
124
120
127
128
143
129
139
123
136
149
142
147
145
157
158
156
161
166
175
186
208
162
112
108
103
100
99
94
92
89
85
83
81
78
76
72
70
67
65
63
62
61
59
58
58
58
58
57
58
57
57
58
59
60
61
60
58
57
58
58
57
57
56
50
50
51
53
57
59
57
55
56
56
58
60
59
58
56
55
55
56
57
57
58
60
61
63
64
65
69
71
74
76
80
82
84
84
86
91
95
98
105
105
111
156
202
196
165
166
160
154
152
137
150
148
148
148
140
124
137
133
124
133
112
130
119
130
125
122
129
137
126
117
109
125
124
138
112
121
111
117
133
117
122
110
113
102
117
120
107
116
106
117
115
113
116
101
117
106
116
125
114
125
118
133
139
142
140
124
151
142
157
159
162
157
161
166
164
179
190
213
147
111
107
104
100
98
95
92
90
86
83
80
77
75
72
69
67
65
64
62
62
59
59
58
58
57
58
57
56
58
59
59
61
60
57
58
58
59
59
60
58
57
48
50
50
50
53
56
58
57
55
55
64
58
60
59
57
56
57
57
56
58
59
59
61
62
64
65
67
71
74
77
80
81
83
85
88
91
95
97
101
105
111
145
204
181
158
160
158
160
153
151
150
147
151
129
127
138
134
134
129
124
139
121
120
125
124
113
127
119
130
117
139
119
106
126
125
129
123
108
116
105
118
109
114
124
125
84
89
114
116
117
127
128
133
111
132
114
130
130
127
128
118
125
139
134
135
146
148
137
154
145
149
156
158
157
154
183
187
214
133
110
105
103
101
98
96
91
89
85
82
80
77
75
72
68
66
65
63
62
62
59
59
59
58
58
58
58
59
59
61
60
59
57
58
59
59
59
60
59
59
57
45
48
53
52
51
53
56
58
58
55
55
56
58
61
59
57
58
57
56
58
59
59
61
63
64
67
69
70
73
76
80
82
85
87
87
90
94
98
101
105
118
135
216
181
167
160
163
146
155
149
150
142
144
137
139
141
138
122
137
136
131
131
105
134
133
127
126
124
121
124
138
133
95
96
118
135
116
115
123
114
114
126
116
112
122
102
111
116
110
91
125
118
129
120
134
126
148
124
124
107
137
140
133
131
144
147
152
142
156
154
150
160
160
158
171
190
191
211
119
110
106
103
99
96
94
91
89
85
83
80
77
75
72
68
66
65
63
62
61
60
59
59
58
58
59
59
60
60
58
57
57
57
57
57
59
59
59
59
59
57
45
45
46
49
50
50
52
55
57
57
54
54
57
59
62
60
59
65
57
58
61
61
63
64
66
67
70
71
73
77
78
82
86
86
88
91
95
99
102
106
113
138
211
190
185
167
159
157
154
144
148
161
149
136
140
143
135
129
115
140
121
127
125
134
117
110
136
122
121
107
134
126
145
129
125
133
121
102
114
130
129
126
124
108
111
107
116
122
130
128
110
105
110
130
107
120
125
125
121
118
133
144
142
136
126
148
145
142
157
151
156
147
145
163
162
180
194
210
117
109
105
103
98
96
93
91
89
86
84
80
77
75
71
68
66
65
64
62
61
60
61
59
58
58
60
61
59
57
57
57
57
56
57
58
58
59
59
59
58
57
43
46
47
45
47
51
51
51
54
57
57
55
56
58
61
64
62
60
60
60
61
62
64
65
66
68
69
73
75
76
79
81
86
86
88
92
96
98
100
104
110
122
213
198
175
167
156
144
138
152
146
135
143
144
141
140
134
128
127
130
142
130
126
130
131
116
105
127
142
128
132
114
135
131
110
121
122
123
126
121
110
110
120
93
121
127
122
114
109
120
114
127
87
122
122
120
112
105
118
143
130
140
132
129
125
137
143
138
150
139
145
145
150
163
165
172
201
200
114
109
106
103
98
96
94
91
89
86
83
80
78
77
72
68
66
65
63
62
61
60
60
61
60
60
59
57
56
56
57
57
56
56
57
58
57
58
59
59
58
57
41
41
44
47
47
47
51
53
52
54
61
57
56
57
59
62
65
62
61
62
63
63
64
67
68
69
70
72
74
76
78
81
83
86
87
91
96
97
99
102
108
115
194
198
177
172
159
159
141
153
150
140
142
129
130
138
136
139
113
133
133
121
118
113
126
132
129
121
119
120
127
113
128
128
129
129
124
120
121
115
128
130
119
127
121
140
122
120
120
118
127
126
106
115
125
135
101
116
135
139
110
148
133
130
132
136
124
141
144
136
146
142
157
168
170
186
204
184
113
109
105
103
101
99
96
93
88
84
82
80
77
77
72
69
67
65
63
64
62
61
60
61
59
57
57
55
55
56
57
57
57
56
57
58
57
58
59
59
58
57
41
41
42
43
47
49
48
49
53
53
54
56
58
58
59
63
64
66
65
65
65
66
66
67
68
79
69
72
73
76
77
80
81
86
87
90
95
96
98
101
106
114
172
202
183
170
154
150
147
147
148
154
143
150
148
147
134
141
141
132
131
121
117
141
143
131
134
129
100
123
127
127
116
134
127
114
120
132
139
103
122
126
122
124
112
120
124
107
98
107
115
120
116
120
129
122
119
107
125
139
130
128
122
132
143
131
150
138
153
141
147
145
160
162
174
187
204
171
111
108
104
100
98
96
94
90
87
83
81
79
77
75
72
70
68
66
63
63
62
61
62
59
57
57
56
55
54
55
56
56
57
56
57
57
57
58
59
58
57
57
42
41
43
43
43
46
50
49
49
52
54
55
56
58
59
61
64
66
68
66
66
66
66
67
68
70
70
72
74
76
77
84
81
84
86
91
95
96
97
100
104
112
150
207
174
174
156
160
149
149
150
158
148
142
152
144
134
149
131
126
130
120
111
122
124
115
124
131
128
110
123
124
116
130
123
122
125
117
110
122
110
96
115
126
121
137
123
119
120
120
117
125
103
130
126
121
121
129
118
122
125
128
123
143
149
142
154
143
126
143
150
145
156
170
177
187
211
148
110
106
103
100
102
95
92
89
87
84
81
78
76
74
71
69
69
68
65
64
61
61
59
58
61
57
56
55
55
56
56
55
54
56
57
57
57
58
59
58
57
57
40
43
42
43
44
45
46
49
52
51
49
51
54
56
57
59
61
65
67
67
67
66
67
69
69
70
71
72
74
75
77
78
80
83
86
88
91
95
97
100
103
109
119
208
183
179
161
164
161
144
143
148
141
150
135
145
141
132
143
130
125
131
133
128
120
120
122
137
130
120
106
110
113
112
127
126
118
123
118
114
128
122
111
110
120
122
127
122
114
129
134
119
125
122
127
111
112
124
138
124
136
133
140
151
147
144
144
143
131
155
165
149
165
168
180
186
210
120
109
107
104
101
98
96
92
88
86
84
82
79
77
74
72
70
68
67
68
65
61
60
59
58
58
58
57
55
55
56
56
54
55
56
55
56
57
58
59
58
58
57
40
41
43
44
45
45
46
47
48
52
52
50
49
52
55
57
59
61
66
68
67
67
68
68
69
70
70
71
73
75
76
78
80
82
84
86
90
94
96
99
103
107
115
201
197
178
166
165
157
153
141
152
149
151
130
132
131
130
143
137
121
142
134
122
127
127
122
136
123
110
114
124
116
126
121
121
115
122
128
117
117
103
120
139
110
125
130
126
116
106
138
135
117
124
128
111
111
128
143
120
132
114
133
145
144
142
140
148
131
156
164
165
163
173
176
195
201
114
109
106
102
99
98
95
92
89
86
83
81
78
76
74
73
71
69
67
70
65
63
61
59
57
58
57
56
56
55
56
56
54
55
56
55
57
57
59
58
58
57
57
40
41
42
42
45
46
46
46
47
47
49
52
52
50
50
53
57
59
62
66
68
68
68
68
69
69
70
70
72
74
78
79
81
83
85
86
90
94
96
98
101
107
114
176
204
182
173
161
159
146
148
150
152
147
137
135
142
128
139
127
134
137
145
142
118
126
130
128
143
134
123
124
104
132
118
141
116
111
120
113
114
105
131
110
120
125
142
134
116
133
128
127
121
130
117
107
126
134
144
131
125
137
140
127
150
141
138
113
151
168
165
164
165
171
187
198
181
113
108
106
100
97
96
94
91
87
85
83
80
77
74
72
72
70
69
67
65
63
62
63
62
59
57
57
57
56
55
56
56
55
56
56
56
57
58
58
58
58
58
57
39
40
41
42
43
43
45
47
47
47
47
47
50
54
53
68
53
57
58
62
65
69
70
70
70
71
70
71
72
74
77
79
82
84
85
88
91
94
94
97
102
104
109
138
211
185
172
169
162
161
164
156
150
141
145
152
139
139
141
132
129
127
149
119
127
127
140
116
122
136
107
129
113
120
119
130
120
118
119
121
127
125
124
127
122
126
123
109
130
121
130
142
139
130
122
114
127
136
127
134
145
110
131
148
145
136
146
120
154
157
150
152
163
173
190
211
155
111
107
103
100
96
95
93
90
86
83
82
80
76
74
72
70
68
67
65
64
63
62
61
61
63
60
58
57
56
56
56
56
56
56
62
59
57
58
58
58
58
57
56
38
39
41
42
42
44
44
44
46
48
48
47
48
49
52
55
52
53
56
57
61
65
69
69
71
72
72
71
72
74
77
78
82
84
86
89
90
93
96
97
100
102
106
118
211
192
177
173
167
167
165
158
151
152
150
142
143
134
134
138
134
123
131
126
127
117
122
111
115
127
125
133
117
129
123
116
130
119
119
115
114
120
112
126
105
115
126
128
129
136
121
112
139
101
114
111
125
121
133
143
135
135
149
128
146
147
140
134
152
154
158
160
171
177
191
211
124
110
107
102
98
100
95
93
90
85
83
82
89
76
73
72
69
67
66
66
65
62
62
60
60
59
61
62
60
56
57
57
57
58
57
56
57
59
58
58
58
57
56
56
38
39
39
41
42
43
44
44
44
45
47
48
48
48
49
52
55
53
53
55
58
61
64
69
70
71
72
73
72
73
75
77
80
84
84
87
88
90
93
95
98
102
106
114
194
196
185
176
162
166
160
161
158
154
144
150
145
141
148
158
130
123
124
118
104
123
139
124
113
134
131
116
119
128
129
110
123
125
118
110
132
123
125
138
124
111
137
105
105
121
132
138
112
123
131
122
128
151
141
143
140
146
137
135
144
152
137
134
162
164
158
161
177
188
196
194
113
108
105
102
98
96
95
91
88
85
83
80
79
76
73
70
68
67
65
65
64
64
62
60
59
58
58
59
62
60
60
57
57
57
56
57
59
58
58
58
57
56
56
56
37
39
39
40
41
42
44
44
44
45
46
46
48
49
49
49
51
54
56
54
57
59
61
64
67
70
72
73
73
75
75
76
80
83
84
84
87
90
93
97
100
102
105
116
165
210
186
178
166
161
160
157
160
154
154
150
136
145
128
141
139
137
141
129
125
139
126
114
129
119
124
111
120
109
129
118
118
119
123
125
129
123
124
120
110
107
128
117
112
126
120
121
111
113
141
128
134
126
137
124
135
135
131
153
148
149
159
140
142
152
157
165
169
184
204
168
111
108
105
102
99
96
94
92
87
84
82
79
78
76
72
70
68
66
64
64
63
62
62
61
60
58
58
58
57
59
60
59
59
58
58
58
57
57
56
55
54
54
55
52
38
39
40
40
40
46
42
43
44
45
45
45
46
47
48
50
50
51
53
57
57
58
60
61
65
68
70
73
74
75
76
77
80
82
85
85
86
92
92
94
96
100
104
111
128
212
196
174
184
166
165
147
162
147
149
139
132
138
138
127
142
144
128
124
121
142
137
142
123
131
121
124
129
107
115
100
127
110
117
132
113
115
119
104
133
132
133
92
111
130
127
127
131
129
137
140
141
136
139
146
145
129
131
152
139
155
144
122
137
160
156
168
173
183
214
128
109
106
102
101
98
96
93
90
86
83
81
79
76
74
71
69
67
65
64
63
63
62
61
60
60
60
59
58
58
57
58
61
61
58
56
56
57
57
56
55
55
54
51
51
37
38
39
40
40
40
42
42
43
44
45
46
56
47
47
48
49
50
51
54
57
59
59
61
63
65
68
71
72
75
76
77
80
83
86
86
86
87
91
94
98
100
103
109
114
190
201
187
180
171
159
152
154
146
154
143
148
144
143
117
124
131
133
123
135
130
138
121
116
128
136
121
116
119
124
117
132
122
118
130
127
114
137
117
110
117
133
123
115
127
118
134
131
142
125
141
137
149
138
141
150
136
147
162
151
143
129
125
154
155
166
167
184
203
198
114
109
104
101
99
97
94
91
89
85
83
81
78
75
73
70
68
66
64
64
63
61
60
61
60
59
58
60
60
58
58
58
57
59
59
57
56
56
56
56
53
51
51
51
50
37
38
39
39
39
41
41
43
42
43
44
45
46
47
47
47
48
50
52
52
54
57
60
66
62
65
67
69
71
73
74
76
78
81
85
89
89
91
93
94
96
100
103
106
111
146
213
186
176
176
160
162
159
155
149
142
152
144
134
137
149
128
141
137
122
122
133
127
124
123
126
122
119
114
123
120
120
119
105
129
109
109
116
123
116
135
119
125
120
139
137
138
123
134
138
125
141
121
145
122
146
135
147
150
146
145
149
162
150
146
173
172
185
206
167
112
107
102
100
99
96
94
91
88
84
81
81
77
75
73
69
67
66
64
63
62
61
60
60
60
60
58
59
59
59
57
57
56
55
56
59
59
56
54
53
51
50
51
52
52
37
38
39
39
39
40
41
43
44
44
44
45
45
47
47
47
48
49
50
51
54
55
57
59
62
64
67
69
70
72
75
76
77
77
81
87
91
92
93
93
95
98
100
104
110
130
205
198
184
175
174
161
156
157
156
145
153
144
145
134
141
129
141
130
116
131
116
111
140
135
121
132
128
125
135
113
114
109
114
129
123
144
125
123
133
117
128
157
131
128
144
127
136
138
141
148
129
140
120
154
132
145
148
149
148
139
158
148
143
161
175
169
195
211
125
112
107
103
99
98
96
93
90
87
83
81
80
77
74
72
69
66
65
64
63
62
60
59
59
59
59
59
58
57
57
57
58
57
56
55
54
57
57
54
52
52
52
51
48
46
37
37
45
39
39
40
40
41
42
43
45
45
47
47
47
47
48
49
50
50
52
54
56
57
59
62
65
67
80
73
74
76
78
77
79
81
84
88
93
96
97
99
102
104
108
124
170
209
191
178
167
157
161
151
142
146
145
148
127
142
142
148
140
133
135
140
130
118
131
134
134
123
125
129
134
136
117
125
124
124
120
111
105
134
144
125
100
130
130
113
139
147
148
127
139
137
140
142
134
156
143
158
150
155
150
161
151
136
137
149
174
176
202
189
117
111
106
103
100
99
96
93
88
86
82
80
80
75
74
71
69
66
65
63
62
61
60
59
59
58
58
58
58
56
56
56
57
58
57
56
54
53
54
56
53
48
46
46
45
43
37
37
37
38
39
39
47
41
42
43
44
45
46
46
47
47
47
49
49
50
51
52
53
55
58
60
62
66
69
70
72
75
86
80
81
82
83
84
86
89
94
97
99
102
107
117
128
212
195
180
171
161
160
153
150
143
150
143
133
147
129
141
145
130
150
115
139
128
130
126
128
135
116
133
124
110
130
119
133
113
138
124
123
123
114
117
123
142
116
142
143
135
148
122
128
118
132
137
145
144
130
144
145
146
127
155
152
150
134
149
177
189
214
145
114
109
105
102
100
99
96
92
87
85
82
81
79
75
72
70
69
66
64
63
62
61
59
58
58
57
57
57
57
57
56
55
55
56
56
56
56
52
49
47
49
50
47
44
42
41
37
37
37
38
39
39
39
40
41
42
43
43
45
45
47
47
47
48
49
49
50
52
53
54
56
59
62
63
66
69
71
72
75
78
81
83
82
85
87
88
91
94
97
101
104
109
115
178
204
184
177
174
163
154
155
152
160
155
141
153
148
153
133
149
138
132
134
122
131
121
129
127
118
137
132
130
118
117
124
131
126
135
127
125
123
126
118
119
140
128
123
121
111
127
85
137
137
154
141
149
150
153
156
149
139
155
151
144
153
166
184
199
195
115
111
108
104
101
100
98
95
91
86
84
82
81
78
74
71
68
67
66
64
63
62
61
59
57
58
56
56
57
56
55
55
54
54
53
54
54
52
51
49
46
45
44
47
46
42
41
37
37
37
38
39
40
39
40
40
41
42
42
44
45
46
47
47
48
49
49
50
51
52
53
56
56
60
62
64
68
70
73
75
77
78
80
81
82
85
89
90
93
96
99
102
106
112
150
213
195
186
171
162
158
164
161
157
140
136
151
143
144
155
146
146
127
127
129
138
125
137
144
131
147
117
124
131
126
128
137
137
125
125
126
138
128
125
129
127
129
109
103
122
125
143
147
133
152
146
143
157
133
135
148
148
145
141
138
131
169
189
211
143
111
107
105
104
102
99
96
92
90
86
84
83
81
78
75
71
67
66
66
64
63
62
60
58
58
57
59
56
55
54
54
54
54
52
52
51
50
51
50
49
48
44
43
42
44
47
43
37
37
37
38
39
46
39
40
40
41
43
43
43
44
45
46
46
48
49
50
51
51
53
53
53
55
58
59
62
65
67
69
73
77
79
80
81
82
83
86
92
94
95
97
101
104
109
128
178
206
183
169
175
162
162
154
161
153
153
143
142
136
144
147
145
142
144
138
129
139
128
132
124
135
137
129
121
128
125
129
116
121
121
119
104
124
118
113
128
106
110
146
143
138
132
131
130
133
124
141
146
139
137
135
133
151
152
147
151
180
198
191
113
108
105
103
101
100
97
95
92
91
87
84
82
79
77
75
72
67
64
64
64
62
62
61
59
58
57
55
54
53
52
53
52
51
51
50
49
49
48
48
47
47
46
44
43
43
43
45
37
37
37
38
39
39
39
40
40
41
42
42
43
43
45
45
46
47
49
50
51
52
52
52
53
63
57
62
61
63
65
67
69
73
78
81
82
82
84
86
89
94
97
97
98
101
106
113
123
211
192
181
168
167
163
154
163
149
141
152
147
151
147
135
135
131
147
138
129
137
131
126
135
123
144
119
135
133
155
131
121
121
119
126
129
134
130
134
131
130
135
134
140
136
143
152
135
127
140
149
133
137
141
147
162
171
162
172
173
186
213
136
110
108
103
101
99
98
96
93
91
90
86
83
81
78
76
73
73
68
64
62
62
62
60
60
60
58
56
54
54
52
51
50
51
50
50
50
49
48
48
48
48
47
46
44
44
41
41
41
37
37
37
37
39
39
39
39
40
41
41
43
43
43
46
45
46
47
47
49
49
50
53
55
67
54
56
58
60
62
64
65
68
71
74
77
83
85
86
86
87
90
94
97
98
100
103
108
112
166
209
185
180
168
164
152
156
152
152
153
145
152
149
141
137
142
132
137
139
147
129
133
127
135
137
133
142
138
144
128
123
146
127
123
140
139
116
137
116
135
137
129
124
127
129
138
143
120
130
140
142
152
151
154
152
150
163
176
189
200
191
114
109
105
101
99
97
96
95
91
89
89
84
81
79
78
76
73
71
70
64
61
60
61
59
59
60
59
56
54
53
52
51
50
49
50
50
50
50
49
48
47
46
46
45
43
46
44
43
40
36
37
37
37
38
39
39
39
40
41
42
42
42
43
45
46
46
47
47
48
49
49
51
53
56
56
57
57
58
60
62
64
66
68
72
75
79
82
83
84
86
88
93
93
95
97
101
106
110
116
201
199
185
177
174
162
155
149
149
152
143
148
148
142
139
139
137
143
139
146
133
138
142
136
136
131
128
124
127
127
127
120
140
137
132
142
130
144
128
136
139
136
126
140
139
147
149
133
152
129
142
151
155
156
145
147
176
183
193
214
129
110
107
104
101
98
97
95
92
90
88
86
83
80
78
77
75
72
69
69
66
61
60
59
59
57
58
58
56
54
53
51
49
50
49
49
51
50
49
49
46
45
47
47
47
45
43
43
43
42
37
37
37
37
38
39
39
39
40
40
41
42
43
43
45
46
46
46
47
48
48
49
51
53
55
56
56
58
58
59
61
64
65
67
70
73
76
78
83
84
85
87
90
93
95
97
99
101
106
111
134
213
187
178
170
166
162
153
155
148
152
154
147
141
137
137
132
140
140
137
139
134
127
126
138
137
136
122
130
143
141
140
141
128
140
133
132
130
131
125
137
131
149
135
137
147
138
134
151
145
148
152
148
151
145
163
176
190
207
169
111
106
104
103
101
98
96
94
92
88
85
84
83
80
77
76
74
72
69
68
66
62
59
58
58
57
57
56
57
55
53
51
50
50
49
48
48
50
49
48
47
45
45
46
48
49
44
43
42
41
37
38
38
38
38
39
39
39
40
40
42
42
42
43
44
45
45
46
46
48
49
49
50
52
53
54
57
60
61
61
62
62
65
68
72
72
74
77
80
84
85
85
87
90
93
95
96
98
102
108
114
179
205
184
173
168
154
149
161
157
154
140
144
144
148
139
153
147
144
146
148
136
143
132
135
138
127
137
140
128
141
142
151
133
136
141
142
142
138
140
139
150
136
138
143
145
143
126
139
143
155
150
159
159
157
172
185
197
200
117
109
105
102
101
100
98
96
93
89
86
83
82
82
79
77
76
73
71
69
67
65
62
59
57
56
56
56
56
56
55
53
51
50
49
48
48
49
48
48
47
48
47
45
45
45
47
48
43
42
41
37
37
37
38
39
39
39
40
40
41
42
42
42
43
44
45
46
46
47
48
49
49
49
51
52
53
54
56
59
62
64
65
65
66
68
71
74
75
78
80
84
87
88
89
91
94
95
98
101
105
110
117
199
199
184
170
170
159
155
154
149
154
142
151
139
137
142
142
140
131
145
133
140
148
137
150
125
137
143
152
143
135
135
126
142
134
134
131
132
139
143
142
146
143
141
143
135
142
146
144
154
148
155
160
170
184
195
217
135
113
106
102
101
99
98
95
93
91
87
85
83
82
81
78
76
75
72
71
68
67
65
63
60
57
56
55
55
55
56
56
53
52
50
49
48
48
48
48
47
47
47
47
46
45
45
45
45
45
43
41
37
37
37
38
38
40
39
40
40
41
41
43
45
43
44
47
47
47
47
49
49
49
49
51
52
53
54
55
57
60
61
64
66
68
68
70
74
76
78
79
81
85
90
92
93
96
98
100
102
104
107
112
138
211
193
180
171
163
165
149
146
146
135
154
149
143
140
148
155
150
153
147
135
137
148
140
141
140
138
120
135
135
139
141
144
139
131
126
145
144
148
143
147
135
145
146
141
144
159
151
152
156
153
169
183
190
212
166
113
109
103
102
98
97
95
92
91
88
87
84
83
82
81
79
75
73
70
68
68
67
65
63
60
57
56
54
54
54
55
55
54
52
51
49
48
47
48
47
46
46
46
46
48
47
45
45
44
44
44
41
37
37
37
38
38
39
39
40
40
40
41
42
43
43
44
45
46
47
47
48
49
51
52
53
54
56
57
57
58
60
60
61
66
66
70
71
71
74
77
79
81
82
85
87
90
94
95
96
97
99
101
106
117
154
211
187
177
166
165
162
156
157
152
159
152
144
145
130
143
148
135
154
148
143
142
136
141
137
146
152
148
138
137
137
150
141
141
146
135
143
143
133
152
138
147
144
142
148
150
156
163
166
173
176
193
212
184
119
109
108
103
100
98
96
95
91
89
87
87
85
84
82
79
77
74
72
69
68
66
66
66
64
61
58
56
54
53
52
54
53
55
52
51
49
48
47
48
47
46
45
45
45
45
49
47
45
43
44
44
42
37
38
38
41
38
39
39
39
40
40
41
42
42
43
44
44
45
46
47
47
48
49
50
51
52
54
56
58
59
60
62
63
64
65
67
69
74
76
79
81
84
84
86
86
88
89
91
93
95
96
99
101
105
112
176
209
183
177
174
158
161
151
156
149
159
143
151
144
149
133
146
156
144
144
146
139
136
154
138
128
142
152
143
143
144
141
139
142
143
133
141
142
131
144
157
151
145
155
156
156
164
174
172
190
205
201
124
113
107
105
102
99
97
95
93
89
87
86
85
85
83
80
76
74
73
69
68
67
66
65
65
65
61
59
56
55
53
52
52
52
54
53
51
51
48
48
46
46
46
45
45
45
44
46
50
46
44
44
45
44
37
37
37
41
38
39
39
39
39
40
41
41
42
43
44
44
45
46
47
51
49
49
50
50
51
53
54
55
56
57
60
61
63
65
66
67
69
71
75
77
79
80
81
82
84
86
90
93
95
96
97
100
102
107
116
186
205
187
173
174
171
152
158
153
158
155
145
148
139
143
142
141
144
144
141
132
147
142
150
148
144
139
146
130
147
141
135
138
142
142
149
149
151
147
150
160
148
152
162
157
173
183
190
202
211
125
123
109
104
102
100
97
96
93
90
88
86
85
84
84
81
80
76
72
71
68
67
66
66
64
65
65
62
60
57
55
53
51
51
52
53
52
51
50
51
48
47
45
45
44
44
44
43
44
46
49
45
44
44
44
37
37
37
38
38
39
38
39
40
40
41
42
42
42
43
44
45
45
47
49
47
48
50
51
52
53
54
55
56
58
61
61
61
62
63
65
66
69
70
72
74
76
78
81
83
84
87
88
91
94
98
101
103
106
110
119
184
208
189
178
166
164
158
160
155
139
149
145
152
134
146
146
146
148
141
141
143
136
145
136
143
148
139
145
155
145
147
151
146
153
149
155
143
147
149
146
157
158
172
172
172
192
204
208
131
114
111
105
102
101
99
96
93
91
88
89
88
85
84
84
81
79
76
71
68
66
65
65
64
64
63
64
63
60
58
54
54
52
51
50
52
51
54
51
49
49
46
46
45
44
44
44
43
43
44
45
47
44
43
44
37
37
38
38
38
39
39
40
40
41
42
42
42
43
44
44
45
45
47
48
49
49
50
51
53
54
55
57
58
60
62
63
63
64
65
66
68
69
72
74
75
77
78
77
79
82
85
89
93
96
98
99
100
102
105
108
115
183
209
190
179
174
167
159
164
159
153
136
145
146
149
150
150
140
147
147
142
145
149
147
135
148
151
148
134
151
145
148
151
144
151
149
152
156
153
158
155
167
178
180
189
199
214
142
123
113
105
102
100
98
97
94
92
91
88
88
88
88
84
80
81
76
72
70
68
65
64
63
63
63
61
63
64
61
58
56
54
52
50
50
50
51
49
51
50
49
48
46
45
44
44
43
43
43
42
43
43
46
43
43
36
37
38
38
39
39
39
40
45
41
41
42
42
43
43
44
45
47
47
48
48
50
51
52
53
54
55
57
60
61
61
62
64
65
67
69
69
67
68
69
72
73
76
78
81
83
86
89
92
92
93
96
98
99
104
105
108
115
176
212
186
178
171
172
157
154
153
155
136
142
154
157
141
150
141
135
145
155
141
144
150
150
156
144
148
153
156
145
151
154
142
150
157
163
150
164
169
170
181
189
202
206
136
112
109
104
102
100
98
98
96
93
89
88
87
86
85
81
80
78
77
74
71
70
67
65
63
62
62
62
61
62
62
62
58
56
54
53
50
49
49
49
50
50
51
50
48
46
46
45
44
43
42
42
42
42
42
42
46
44
37
37
38
38
39
39
38
40
40
40
41
41
42
42
43
44
45
45
46
48
48
48
49
50
51
52
53
55
57
56
57
58
59
61
63
63
64
65
67
68
70
73
76
79
81
83
84
85
86
89
91
93
98
101
101
103
106
109
114
166
212
193
182
173
166
163
157
156
146
144
152
156
150
138
150
146
139
145
148
142
150
143
152
145
150
145
156
150
159
154
153
149
153
155
157
161
168
181
192
206
198
125
110
107
104
102
101
100
98
97
94
91
89
89
89
84
82
80
76
75
75
74
72
70
68
66
64
62
61
61
60
61
62
62
60
57
55
53
51
50
49
49
50
50
50
50
49
47
47
46
43
43
43
42
42
41
42
41
42
45
36
37
37
37
38
38
39
38
39
40
39
40
41
42
43
43
44
44
46
48
47
48
48
49
50
51
52
53
54
54
55
56
57
59
60
61
63
64
66
68
70
73
74
75
76
78
81
83
84
87
92
96
97
98
100
100
102
104
107
113
150
211
200
184
179
169
161
161
163
155
156
136
145
149
150
146
145
144
148
150
153
152
146
157
155
151
161
157
162
155
156
163
164
164
168
183
185
194
211
183
118
109
106
104
102
100
99
98
97
95
93
91
90
88
83
80
79
78
75
73
71
69
72
72
70
68
66
64
61
61
61
62
62
62
61
59
55
53
52
50
48
49
48
50
50
50
54
48
47
45
44
43
42
42
42
41
41
42
40
42
36
37
37
37
37
39
38
38
39
39
39
40
40
41
42
42
43
44
44
46
46
46
46
48
49
50
50
51
52
54
54
55
58
59
60
60
61
77
64
66
67
69
73
77
79
80
80
81
85
90
92
92
93
94
96
99
101
102
103
106
111
134
197
208
188
180
169
167
161
158
166
154
162
157
153
154
146
149
153
151
149
155
153
149
154
153
157
169
161
158
163
161
170
175
183
189
202
210
153
111
108
105
103
102
100
98
98
96
94
92
91
88
85
82
80
78
76
73
73
71
69
68
66
67
71
71
71
67
64
64
63
63
62
61
61
61
57
54
53
51
49
48
48
48
49
49
49
51
48
46
44
43
42
42
43
44
42
41
41
40
35
37
37
37
37
37
38
38
38
39
39
39
40
41
42
42
43
44
44
46
46
47
47
49
49
50
50
50
52
53
54
55
57
58
59
60
61
63
65
69
74
75
77
75
75
78
80
83
85
85
86
88
90
93
97
98
97
98
99
102
107
111
117
164
210
199
187
176
169
176
166
167
158
151
159
156
169
148
161
146
159
152
155
162
157
163
167
160
165
165
172
176
181
183
198
213
194
125
110
106
104
103
100
100
98
97
95
94
90
89
87
85
82
81
79
78
75
73
71
69
66
65
64
64
63
63
65
66
66
66
64
63
62
61
60
61
59
56
54
52
50
49
49
48
48
48
47
48
48
49
44
43
43
42
42
43
42
41
41
40
35
37
36
37
37
37
37
37
39
39
39
39
40
41
42
42
43
43
44
45
46
47
47
49
49
49
51
51
53
56
58
59
60
60
62
63
64
66
69
72
71
69
69
72
75
78
80
80
80
81
83
86
90
94
94
94
94
96
98
102
103
105
108
110
126
186
212
199
188
180
177
171
175
163
166
160
163
167
164
161
162
162
160
166
166
168
166
172
175
181
182
188
194
208
204
154
112
108
106
104
102
100
98
98
96
94
94
93
89
87
85
84
83
81
78
76
74
72
69
68
65
64
63
62
61
60
60
60
58
58
58
57
58
58
57
58
59
56
54
52
51
50
49
49
47
46
47
46
45
47
58
44
43
43
42
42
42
42
40
39
35
36
36
37
38
37
37
38
38
39
40
40
40
41
42
42
43
43
44
45
47
48
48
48
49
51
53
57
55
55
58
58
58
59
61
64
66
67
65
64
65
66
69
71
74
76
77
78
78
80
84
87
89
90
90
90
93
95
98
100
100
103
104
102
105
112
135
187
211
207
193
186
184
176
181
168
168
169
168
164
169
177
172
172
180
177
174
180
186
193
198
214
207
162
116
110
107
104
103
101
100
99
97
95
95
93
91
91
90
86
83
82
81
81
78
76
74
72
69
67
64
63
62
62
60
60
59
58
57
57
56
55
56
55
56
56
57
57
54
52
52
51
49
48
47
46
46
45
44
45
53
49
44
44
43
43
42
41
39
39
35
36
37
37
37
37
38
38
38
39
40
40
40
41
41
42
43
44
45
46
46
48
48
49
50
49
58
51
53
53
56
56
58
60
60
61
60
60
61
63
64
66
68
71
73
75
74
76
79
83
84
86
88
86
86
90
93
93
96
95
98
101
100
102
101
106
105
113
125
175
201
211
204
197
190
187
181
185
179
181
178
184
181
179
192
194
196
200
210
216
199
155
136
112
106
106
105
102
100
101
99
97
96
93
92
91
90
88
87
87
83
81
80
79
77
75
72
69
67
66
63
62
62
61
60
60
58
58
57
56
56
55
56
56
55
55
57
58
56
52
53
52
50
48
46
45
46
45
44
44
46
49
49
45
44
43
43
40
39
39
35
35
37
37
37
37
38
38
38
38
40
40
40
41
41
42
44
44
45
46
47
47
48
48
48
49
50
51
52
54
55
56
65
55
56
57
59
60
61
62
65
68
70
70
70
71
74
78
80
82
84
86
83
82
86
89
91
92
92
94
98
96
97
100
102
101
103
102
105
111
113
131
170
197
208
214
213
206
204
201
196
197
202
209
214
210
204
193
160
123
117
110
105
104
102
101
102
100
98
98
98
96
94
94
90
88
85
84
83
84
85
81
80
78
76
74
71
68
66
66
64
63
62
61
60
58
58
58
57
56
55
55
55
55
54
55
56
56
57
53
53
54
52
49
47
46
46
45
43
43
44
47
48
47
46
45
43
40
40
39
35
36
36
37
37
37
37
38
38
39
39
40
40
41
41
42
43
44
45
46
46
47
47
48
49
50
51
52
52
53
52
53
54
54
55
57
59
60
62
64
67
67
67
67
68
70
75
77
80
83
84
80
79
83
85
85
87
88
90
93
95
93
98
96
100
99
103
101
102
106
104
107
111
113
117
128
149
163
172
177
178
182
172
156
140
124
114
113
111
108
107
104
103
102
99
99
98
98
96
94
95
96
95
93
91
87
87
85
84
82
81
83
79
77
76
73
70
67
66
66
63
63
62
61
59
57
57
57
56
55
54
54
56
56
54
55
55
54
56
55
54
55
51
50
48
46
45
45
43
43
42
45
47
48
48
45
42
40
40
39
36
36
36
37
37
38
38
38
39
39
39
40
40
40
41
42
44
44
45
45
46
47
48
49
49
50
50
49
49
51
51
52
53
54
56
57
59
62
64
63
65
65
65
66
68
71
73
77
81
82
77
78
80
81
82
83
84
87
89
93
90
93
94
97
96
98
100
100
102
103
101
105
104
105
107
106
106
107
108
110
109
109
110
106
107
106
108
107
105
104
102
102
101
99
99
96
96
96
95
93
92
90
92
94
91
90
87
84
83
82
80
80
82
78
76
72
69
67
68
66
64
63
62
61
59
57
57
57
56
54
55
55
55
55
55
54
54
54
54
55
53
56
54
50
48
46
46
45
45
45
44
44
46
46
47
47
45
42
41
40
36
36
35
36
37
37
38
38
38
39
39
39
40
40
42
42
43
44
45
46
46
47
47
48
48
48
48
48
50
50
51
52
53
55
57
58
59
60
61
62
64
64
65
67
68
70
74
79
78
74
74
77
78
79
81
82
83
85
90
87
88
93
90
95
92
98
95
98
101
100
100
102
100
103
103
101
102
102
103
107
105
103
105
103
102
103
103
103
102
100
100
98
98
98
97
95
95
95
94
92
90
88
87
86
88
90
89
88
86
82
77
76
77
80
74
71
70
70
69
67
65
63
62
60
59
57
57
57
56
56
56
55
55
55
55
54
54
55
54
56
54
55
56
50
48
47
47
48
47
46
46
45
43
44
46
45
45
44
41
40
36
36
35
36
37
37
38
38
57
39
39
39
41
41
42
43
43
44
44
44
44
45
46
46
47
47
47
48
52
50
51
52
53
55
57
57
57
59
60
62
63
63
64
66
67
72
77
73
70
71
74
75
76
79
81
81
82
86
86
84
90
87
92
90
91
97
93
95
97
97
99
99
98
100
100
99
100
100
100
103
103
100
102
101
99
101
99
101
99
99
99
97
95
94
94
93
93
92
91
89
87
87
86
84
82
82
82
82
83
82
80
77
74
73
77
72
70
70
68
66
64
64
62
60
59
58
57
57
55
56
56
57
56
56
56
55
56
56
56
56
56
56
56
53
50
51
51
51
50
48
46
45
44
44
44
44
43
43
44
42
36
36
35
37
37
37
37
38
38
39
39
40
41
42
41
42
42
42
42
45
44
44
45
46
46
48
48
48
49
49
51
52
52
53
55
56
57
58
59
61
61
63
64
65
71
74
70
68
69
71
73
74
76
80
78
80
82
86
81
83
86
84
89
86
92
92
91
95
94
94
98
95
94
97
98
97
97
98
97
100
100
98
99
99
97
96
98
96
98
98
97
97
95
93
93
92
89
89
88
86
85
83
83
82
82
80
78
77
78
79
78
77
75
73
71
76
73
71
68
66
65
65
63
61
60
59
58
58
56
57
57
57
57
58
58
58
60
62
62
61
61
60
58
58
56
55
54
54
54
52
48
45
44
44
44
43
41
41
42
42
35
36
35
37
36
37
38
38
38
39
39
40
40
40
40
40
41
41
43
43
45
45
46
47
46
47
48
48
49
49
50
51
51
53
54
56
57
58
59
59
61
62
64
67
72
68
67
68
69
72
71
73
83
76
78
79
84
80
80
84
80
87
83
84
92
86
88
94
92
90
96
92
93
94
96
94
94
96
95
96
99
96
96
97
95
94
95
94
95
94
94
95
95
92
90
89
88
87
87
86
84
82
81
81
82
81
78
77
75
76
77
77
76
74
71
70
75
75
70
69
68
66
63
63
63
62
62
61
59
59
61
61
61
63
64
64
64
61
57
56
56
55
54
51
48
49
49
49
49
50
49
46
44
44
43
43
43
41
41
40
35
36
36
36
36
37
37
37
38
39
38
39
38
39
39
40
40
41
43
44
44
45
45
45
46
47
47
48
48
49
50
50
52
52
53
54
59
57
58
59
60
62
66
69
65
67
67
68
70
69
70
77
76
76
76
82
79
78
80
81
81
84
81
84
89
84
87
91
90
89
94
90
91
92
94
92
92
95
92
93
97
94
92
95
93
91
91
94
90
92
90
90
91
93
91
88
85
84
84
84
84
82
80
80
79
80
80
78
76
74
73
72
70
71
72
70
70
74
76
74
71
71
68
68
68
68
68
66
66
66
65
62
60
59
59
59
57
56
56
54
54
54
54
52
49
47
47
47
47
46
47
50
46
43
43
42
41
42
42
40
36
36
36
36
36
36
37
37
38
38
38
39
39
38
39
40
41
42
43
43
43
44
44
45
46
46
47
48
48
48
49
50
51
52
53
54
55
57
57
58
61
65
68
63
66
67
66
68
67
68
75
74
72
75
78
79
75
76
80
76
84
78
79
87
83
83
88
86
88
89
90
87
89
90
92
89
89
93
90
90
95
92
91
93
92
89
88
89
90
87
88
85
86
86
88
89
88
86
84
82
82
82
80
79
78
76
76
77
77
75
72
71
70
68
67
66
64
65
67
71
68
65
65
64
64
62
61
60
58
58
57
57
56
54
53
54
54
54
54
54
58
56
55
54
51
49
48
47
46
45
45
44
47
46
43
44
42
40
39
39
35
36
36
36
35
36
37
37
37
37
38
38
39
39
39
40
41
41
42
42
42
43
44
44
45
46
47
48
48
48
49
50
51
52
52
54
55
55
58
60
63
64
62
64
66
64
66
64
73
72
73
70
71
73
78
72
74
79
76
79
79
77
79
86
80
82
87
84
85
89
87
85
89
88
90
88
87
91
87
87
91
90
88
89
90
87
85
86
86
85
83
84
84
83
82
83
81
81
80
79
79
79
78
78
76
75
74
72
72
74
74
73
71
68
66
64
65
64
64
61
65
67
64
63
61
61
60
59
56
55
55
55
52
52
52
53
53
54
54
53
56
59
59
58
54
51
49
48
46
47
45
44
44
45
44
42
42
40
39
38
