P2
# Created by GIMP version 2.10.30 PNM plug-in
13 10
255
40
47
55
71
86
115
127
114
88
70
54
45
41
42
48
60
80
139
164
154
165
135
82
62
50
41
46
55
70
110
159
137
134
144
171
113
70
53
42
48
56
76
149
137
131
117
123
153
149
78
59
46
54
58
80
146
135
131
114
124
139
160
82
59
51
55
59
81
143
141
125
124
110
136
159
82
59
58
45
59
78
145
145
125
119
121
138
147
78
60
56
40
48
69
111
165
139
135
134
155
111
70
55
47
39
46
59
80
126
154
146
158
139
83
64
51
44
37
44
53
66
83
112
126
114
86
71
58
53
44
